X: 11598
T: Eel In The Sink, The
R: reel
M: 4/4
K: Gmajor
e2 AB cdec|d2 BG DGBd|e2 AB cdea|gedB BA A2:|
ea ab aged|(Bcd) ef g2 fg|ea (aaa) bgea|gedB BA A2|
a3 b aged|(Bcd) ef g2 fg|afge fdea|gedB BAA2||

